X: 9
T:On Christmas Night
% Nottingham Music Database
S:Trad
M:6/8
K:G
d|"G"d2B "C"c2d|"G"BAG "D7"A2F|"G"G2G "C"ABc|"D7"B2A "G"G2d|"G"d2B "C"c2d|\
"G"BAG "D7"A2F|
"G"G2G "C"ABc|"D7"B2A "G"G3|"Am"A3 A2G|"D7"ABc "G"dcB|"D7"A3 -A3|\
M:9/8
"G"d3 "C"e3 "D"d3|\
M:6/8
"Am"c2B "D7"AGA|"G"G3 -G2:|


